X:259
M:4/4
L:1/4
K:G
G2 G E | D G A B | G2 z G | G A B c | A2 G2 | G2 G E | D G A B | G2 z G | G A B c | A2 G2 | z G E F | G E D ^C | D2 z D | G A B c | B A B2 | z !sintro!A B c | d B (A/G/ A) | G4 !eintro!|]
